aloe_vera/img/aloe_logo.svg

<svg width="37" height="37" viewBox="0 0 37 37" fill="none" xmlns="http://www.w3.org/2000/svg">
<rect width="37" height="37" rx="5" fill="black"/>
<g clip-path="url(#clip0)">
<path d="M26.8848 8.53446C27.1757 10.2488 27.4441 13.7084 25.7598 16.9286H21.2523C21.6736 13.4548 23.5733 10.3318 26.4643 8.36036C26.54 8.30814 26.637 8.29785 26.7219 8.33303C26.8069 8.3682 26.8682 8.44403 26.8848 8.53446Z" fill="#FFBC2E"/>
<path d="M22.7218 5.52751C23.0136 6.91966 23.2067 8.33067 23.2998 9.75001C21.5393 11.7614 20.4466 14.2697 20.1723 16.9286H18.5512C18.6198 15.3322 18.9991 10.4856 21.0959 6.98734C21.4287 6.42385 21.8178 5.89561 22.2573 5.41073C22.3235 5.33392 22.4273 5.30103 22.5256 5.32575C22.6239 5.35047 22.6998 5.42856 22.7218 5.52751Z" fill="#FFBC2E"/>
<path d="M18.2143 3.52608C18.9715 4.48244 19.5851 5.54416 20.0357 6.67768C19.0541 8.49557 18.367 10.4576 18 12.4907C17.6333 10.4575 16.9462 8.49543 15.9643 6.67768C16.4148 5.5441 17.0284 4.48237 17.7857 3.52608C17.838 3.4613 17.9168 3.42365 18 3.42365C18.0833 3.42365 18.162 3.4613 18.2143 3.52608Z" fill="#FFBC2E"/>
<path d="M13.2782 5.52752C13.2995 5.42821 13.3752 5.34952 13.4736 5.32433C13.572 5.29913 13.6762 5.33176 13.7427 5.40859C14.1825 5.89432 14.5718 6.42346 14.9046 6.98787C16.9982 10.4807 17.3791 15.3311 17.4487 16.9286H15.8277C15.5534 14.2697 14.4606 11.7614 12.7002 9.75002C12.7933 8.33067 12.9864 6.91966 13.2782 5.52752Z" fill="#FFBC2E"/>
<path d="M9.11572 8.53178C9.13069 8.44045 9.19175 8.36332 9.2772 8.32778C9.36266 8.29225 9.4604 8.30335 9.53572 8.35713C11.3686 9.59968 12.8266 11.32 13.7518 13.3318C13.7605 13.3553 13.7709 13.3783 13.7829 13.4003C14.2909 14.5176 14.6182 15.7086 14.7525 16.9286H10.2386C8.55482 13.7073 8.82429 10.2466 9.11572 8.53178Z" fill="#FFBC2E"/>
<path d="M8.35712 18.5357C8.35712 18.2398 8.59696 18 8.89283 18H27.1071C27.403 18 27.6428 18.2398 27.6428 18.5357V19.0714H8.35712V18.5357Z" fill="#FFBC2E"/>
<path d="M26.8929 20.3636L27.0423 21.2143H8.95767L9.10928 20.3636C9.13225 20.2351 9.24448 20.1419 9.37499 20.1429H26.625C26.7563 20.1408 26.8698 20.2343 26.8929 20.3636Z" fill="#FFBC2E"/>
<path d="M26.625 30.893C25.5067 32.2304 23.8523 33.0023 22.1089 33H13.8911C12.1468 33.0002 10.492 32.2277 9.37221 30.8903C8.2524 29.5529 7.7826 27.7882 8.08928 26.0711L8.38446 24.4286H12.1071C12.403 24.4286 12.6429 24.1887 12.6429 23.8928C12.6429 23.597 12.403 23.3571 12.1071 23.3571H8.57571L8.76642 22.2857H27.2336L27.4243 23.3571H15.3214C15.0256 23.3571 14.7857 23.597 14.7857 23.8928C14.7857 24.1887 15.0256 24.4286 15.3214 24.4286H27.6155L27.9086 26.0705C28.2168 27.7888 27.7466 29.5553 26.625 30.893Z" fill="#FFBC2E"/>
</g>
<defs>
<clipPath id="clip0">
<rect width="30" height="30" fill="white" transform="translate(3 3)"/>
</clipPath>
</defs>
</svg>

<svg width="37" height="37" fill="none" xmlns="http://www.w3.org/2000/svg"><rect width="37" height="37" rx="5" fill="#000"/><g clip-path="url(#clip0)" fill="#FFBC2E"><path d="M26.885 8.534c.29 1.715.56 5.174-1.125 8.395h-4.508a12.14 12.14 0 015.212-8.569.271.271 0 01.42.174zm-4.163-3.006A30.18 30.18 0 0123.3 9.75a12.911 12.911 0 00-3.128 7.179h-1.62c.068-1.597.447-6.443 2.544-9.942a9.67 9.67 0 011.161-1.576.268.268 0 01.465.117zm-4.508-2.002a12.54 12.54 0 011.822 3.152A19.54 19.54 0 0018 12.49a19.521 19.521 0 00-2.036-5.813 12.53 12.53 0 011.822-3.152.275.275 0 01.428 0zm-4.936 2.002a.268.268 0 01.465-.12c.44.486.829 1.015 1.162 1.58 2.093 3.493 2.474 8.343 2.544 9.94h-1.621A12.912 12.912 0 0012.7 9.75c.093-1.42.286-2.83.578-4.222zM9.116 8.532a.268.268 0 01.42-.175 12.136 12.136 0 014.247 5.043c.508 1.118.835 2.309.97 3.529h-4.514c-1.684-3.222-1.415-6.682-1.123-8.397zm-.759 10.004c0-.296.24-.536.536-.536h18.214c.296 0 .536.24.536.536v.535H8.357v-.535zm18.536 1.828l.15.85H8.957l.151-.85a.268.268 0 01.266-.221h17.25a.268.268 0 01.268.22zm-.268 10.529A5.877 5.877 0 0122.109 33H13.89a5.893 5.893 0 01-5.802-6.929l.295-1.642h3.723a.536.536 0 000-1.072h-3.53l.19-1.071h18.468l.19 1.071H15.321a.536.536 0 000 1.072h12.295l.293 1.642a5.888 5.888 0 01-1.284 4.822z"/></g><defs><clipPath id="clip0"><path fill="#fff" transform="translate(3 3)" d="M0 0h30v30H0z"/></clipPath></defs></svg>
